public/images/iot.svg

<svg xmlns="http://www.w3.org/2000/svg" width="1000" height="1000" fill="none">
  <circle cx="500" cy="500" r="450" fill="#fff"/>
  <path fill="#26ED75" fill-rule="evenodd" d="M500 1000c276.143 0 500-223.857 500-500C1000 223.857 776.143 0 500 0 223.857 0 0 223.857 0 500c0 276.143 223.857 500 500 500Zm133.965-368.428c73.986-73.904 73.986-193.728 0-267.633-73.986-73.906-193.944-73.906-267.93 0-73.986 73.905-73.986 193.729 0 267.633 14.492 14.477 14.492 37.946 0 52.422-14.492 14.475-37.988 14.475-52.478 0-102.971-102.857-102.971-269.621 0-372.476 102.968-102.858 269.918-102.858 372.886 0 102.971 102.855 102.971 269.619 0 372.476-14.49 14.475-37.986 14.475-52.478 0-14.492-14.476-14.492-37.945 0-52.422ZM500.01 507.605c20.494 0 37.107 15.784 37.107 35.252v140.641c0 19.469-16.613 35.252-37.107 35.252-20.496 0-37.11-15.783-37.11-35.252V542.857c0-19.468 16.614-35.252 37.11-35.252Zm0-107.814c20.494 0 37.107 16.596 37.107 37.068v.508c0 20.473-16.613 37.069-37.107 37.069-20.496 0-37.11-16.596-37.11-37.069v-.508c0-20.472 16.614-37.068 37.11-37.068Z" clip-rule="evenodd"/>
</svg>

<svg width="1000" height="1000" viewBox="0 0 1000 1000" fill="none" xmlns="http://www.w3.org/2000/svg">
<g clip-path="url(#clip0_612_1736)">
<circle cx="500" cy="500" r="500" fill="white"/>
<path fill-rule="evenodd" clip-rule="evenodd" d="M500 1000C776.143 1000 1000 776.143 1000 500C1000 223.857 776.143 0 500 0C223.857 0 0 223.857 0 500C0 776.143 223.857 1000 500 1000ZM633.965 631.572C707.951 557.668 707.951 437.844 633.965 363.939C559.979 290.033 440.021 290.033 366.035 363.939C292.049 437.844 292.049 557.668 366.035 631.572C380.527 646.049 380.527 669.518 366.035 683.994C351.543 698.469 328.047 698.469 313.557 683.994C210.586 581.137 210.586 414.373 313.557 311.518C416.525 208.66 583.475 208.66 686.443 311.518C789.414 414.373 789.414 581.137 686.443 683.994C671.953 698.469 648.457 698.469 633.965 683.994C619.473 669.518 619.473 646.049 633.965 631.572ZM500.01 507.605C520.504 507.605 537.117 523.389 537.117 542.857V683.498C537.117 702.967 520.504 718.75 500.01 718.75C479.514 718.75 462.9 702.967 462.9 683.498V542.857C462.9 523.389 479.514 507.605 500.01 507.605ZM500.01 399.791C520.504 399.791 537.117 416.387 537.117 436.859V437.367C537.117 457.84 520.504 474.436 500.01 474.436C479.514 474.436 462.9 457.84 462.9 437.367V436.859C462.9 416.387 479.514 399.791 500.01 399.791Z" fill="#26ED75"/>
</g>
<defs>
<clipPath id="clip0_612_1736">
<rect width="1000" height="1000" fill="white"/>
</clipPath>
</defs>
</svg>
